img/SCH_icon_white.svg

<svg fill="none" height="29" viewBox="0 0 24 29" width="24" xmlns="http://www.w3.org/2000/svg"><g fill="#fff"><path d="m12.458 14.1584s-8.15658 1.0196-8.07148-3.5183c.10012-5.35349 5.89258-9.49806 10.44498-10.6401 0 0-5.11093.940092-8.57424 3.2481-3.4633 2.30801-6.25726 5.52374-6.25726 8.2448 0 2.7211 2.82256 4.0397 4.10691 4.2593 1.28435.2195 3.96603.3574 8.35109-1.5938z"/><path d="m.764404 29.0001s7.066776-2.503 12.679696-7.5032c5.613-5.0002 6.6177-12.71093-4.93428-10.4993 0 0 4.72548-1.92875 8.13798-1.92875 3.4126 0 7.3493.63329 7.3493 4.52595.0028 5.2908-10.1954 14.8501-23.232696 15.4053z"/><path d="m21.4749 2.11871c.7531 1.28348.1588 3.00815-1.3272 3.85184s-3.3003.48834-4.0533-.79514-.1316-2.96241 1.3266-3.85184c1.2686-.774029 3.3009-.488342 4.0539.79514z"/></g></svg>

<svg width="24" height="29" viewBox="0 0 24 29" fill="none" xmlns="http://www.w3.org/2000/svg">
<path d="M12.458 14.1584C12.458 14.1584 4.30142 15.178 4.38652 10.6401C4.48664 5.28661 10.2791 1.14204 14.8315 0C14.8315 0 9.72057 0.940092 6.25726 3.2481C2.79396 5.55611 0 8.77184 0 11.4929C0 14.214 2.82256 15.5326 4.10691 15.7522C5.39126 15.9717 8.07294 16.1096 12.458 14.1584Z" fill="white"/>
<path d="M0.764404 29.0001C0.764404 29.0001 7.83118 26.4971 13.4441 21.4969C19.0571 16.4967 20.0618 8.78597 8.50982 10.9976C8.50982 10.9976 13.2353 9.06885 16.6478 9.06885C20.0604 9.06885 23.9971 9.70214 23.9971 13.5948C23.9999 18.8856 13.8017 28.4449 0.764404 29.0001Z" fill="white"/>
<path d="M21.4749 2.11871C22.228 3.40219 21.6337 5.12686 20.1477 5.97055C18.6617 6.81424 16.8474 6.45889 16.0944 5.17541C15.3414 3.89193 15.9628 2.213 17.421 1.32357C18.6896 0.549541 20.7219 0.835228 21.4749 2.11871Z" fill="white"/>
</svg>
